X: 25918
T: Maudabawn Chapel
R: reel
M: 4/4
K: Gmajor
EF|:"C" G3 F E2 DB,|"G/B" G,A,B,D"C" E2 DB,|"G/B" G,A,B,D GABd|"C" gabg efga|
"G/B" ~g2 ga bgaf|"C" gfed "D/A" affe|"G/B" d2 gd "C" BcdB|1 "D/A" AcBA "G" GEEF:|2 "D/A" AcBA "G" GEED||
|:"Em" E2 BE dEBE|"D" Ed^cB AD (3FED|"Em" E2 BE dEBE|{/^c}"D" BA FD A,DFD|
"Em" EBBA B3 d|BAGA B^cde|"D" fd ~d2 gfe^c|1 "D" dBAF "Em" GEED:|2 "D" dBAF "Em" GEEF||

